assets/images/icons/water-sport.svg

<svg width="32" height="32" viewBox="0 0 32 32" fill="none" xmlns="http://www.w3.org/2000/svg">
<path opacity="0.1" d="M0.223155 23.1618C-0.0589054 20.752 -0.098086 18.3874 0.248062 16.248C0.673696 13.6174 1.78493 10.6909 2.99894 8.07362C5.37163 2.95839 9.61911 1.16885 14.7912 0.362065C22.0007 -0.762522 31.9372 0.362091 32 9.08714C31.6383 12.2073 29.2517 20.8815 21.1951 21.5434C18.5313 21.7622 17.5348 24.4378 16.3612 27.5006C13.2729 35.5602 1.25575 31.9835 0.223155 23.1618Z" fill="#7FB51F"/>
<path d="M13.6982 14.3321C14.6274 14.3321 15.3807 13.5788 15.3807 12.6496C15.3807 11.7203 14.6274 10.967 13.6982 10.967C12.7689 10.967 12.0156 11.7203 12.0156 12.6496C12.0156 13.5788 12.7689 14.3321 13.6982 14.3321Z" fill="#7FB51F"/>
<path d="M25.6898 12.5223C24.6542 12.1774 23.6523 12.242 23.1474 12.6322L11.6351 8.79823C11.6847 8.52041 11.5627 8.22552 11.2972 8.07223C10.98 7.88919 10.5733 7.99597 10.3662 8.29789L10.3228 8.36122L8.84874 7.87039C8.67868 7.25539 7.9156 6.60289 6.87999 6.25803C5.55329 5.81614 4.28171 6.04644 4.03998 6.77244C3.79824 7.49839 4.67776 8.44508 6.00451 8.88692C7.04012 9.23178 8.04202 9.16714 8.54687 8.77695L9.76055 9.18116L7.88166 11.9205C7.70405 12.1794 7.72191 12.5252 7.92526 12.7645L10.6728 15.9979L10.318 20.8827H7.0344C6.71977 20.8827 6.50808 21.205 6.63305 21.4937L7.32296 23.0876C8.81551 21.9603 10.9541 22.0756 12.3134 23.435C12.5952 23.7168 13.0451 23.7116 13.3218 23.435C14.8099 21.9467 17.2228 21.9451 18.7126 23.435C18.9914 23.7138 19.4461 23.7158 19.7269 23.435C20.9905 22.1714 22.9274 21.9828 24.3928 22.8676L24.9909 21.4858C25.1143 21.2008 24.9054 20.8827 24.5948 20.8827H14.6301L14.9373 16.6541L17.8985 15.6444C17.9649 15.6217 18.0274 15.5892 18.0841 15.5478L21.4309 13.0678L22.8456 13.5389C23.0156 14.1539 23.7787 14.8064 24.8143 15.1513C26.1411 15.5931 27.4126 15.3628 27.6544 14.6369C27.8961 13.9108 27.0166 12.9642 25.6898 12.5223ZM17.3494 14.3616L14.5262 15.3242L11.6398 14.9872L9.32987 12.2689L11.1339 9.63852L19.8455 12.5397L17.3494 14.3616Z" fill="#7FB51F"/>
<path d="M27.7719 23.9819C27.4698 23.6798 26.9798 23.6798 26.6778 23.9819C26.0952 24.5645 25.1521 24.5647 24.5693 23.9819C23.3848 22.7974 21.4572 22.7972 20.2726 23.9819C19.6909 24.5636 18.7526 24.5644 18.1701 23.9819C16.9847 22.7964 15.0548 22.7944 13.8674 23.9819C13.2857 24.5636 12.3475 24.5644 11.765 23.9819C10.586 22.803 8.6564 22.7938 7.46826 23.9819C6.88565 24.5645 5.94262 24.5647 5.35982 23.9819C5.05771 23.6797 4.56777 23.6798 4.26566 23.9819C3.96355 24.284 3.96351 24.7739 4.26566 25.0761C5.45291 26.2635 7.37493 26.2636 8.56232 25.0761C9.1296 24.5088 10.0699 24.4812 10.6648 25.0761C11.8503 26.2615 13.78 26.2636 14.9675 25.0761C15.5492 24.4944 16.4875 24.4936 17.0699 25.0761C18.389 26.3951 20.4584 26.1305 21.4093 25.0356C21.9933 24.4954 22.9078 24.5087 23.4751 25.0761C24.6624 26.2635 26.5843 26.2636 27.7718 25.0761C28.074 24.774 28.074 24.284 27.7719 23.9819Z" fill="#7FB51F"/>
</svg>

<svg xmlns="http://www.w3.org/2000/svg" width="32" height="32" fill="none"><path fill="#7FB51F" d="M.223 23.162c-.282-2.41-.321-4.775.025-6.914.426-2.63 1.537-5.557 2.75-8.174C5.373 2.958 9.62 1.169 14.792.362 22.001-.763 31.937.362 32 9.087c-.362 3.12-2.748 11.795-10.805 12.456-2.664.22-3.66 2.895-4.834 5.958-3.088 8.06-15.105 4.482-16.138-4.34" opacity=".1"/><path fill="#7FB51F" d="M13.698 14.332a1.683 1.683 0 1 0 0-3.365 1.683 1.683 0 0 0 0 3.365"/><path fill="#7FB51F" d="M25.69 12.522c-1.036-.345-2.038-.28-2.543.11L11.635 8.798a.695.695 0 0 0-.338-.726.71.71 0 0 0-.93.226l-.044.063-1.474-.49c-.17-.616-.933-1.268-1.969-1.613-1.327-.442-2.598-.212-2.84.514s.638 1.673 1.965 2.115c1.035.345 2.037.28 2.542-.11l1.214.404-1.88 2.74a.696.696 0 0 0 .044.844l2.748 3.233-.355 4.885H7.034a.437.437 0 0 0-.4.61l.689 1.595a3.82 3.82 0 0 1 4.99.347.71.71 0 0 0 1.009 0 3.81 3.81 0 0 1 5.39 0 .72.72 0 0 0 1.015 0 3.82 3.82 0 0 1 4.666-.567l.598-1.382a.432.432 0 0 0-.396-.603H14.63l.307-4.229 2.961-1.01a.7.7 0 0 0 .186-.096l3.347-2.48 1.415.47c.17.616.933 1.268 1.968 1.613 1.327.442 2.599.212 2.84-.514.242-.726-.637-1.673-1.964-2.115m-8.34 1.84-2.824.962-2.886-.337-2.31-2.718 1.804-2.63 8.712 2.9z"/><path fill="#7FB51F" d="M27.772 23.982a.774.774 0 0 0-1.094 0 1.49 1.49 0 0 1-2.109 0 3.04 3.04 0 0 0-4.296 0 1.484 1.484 0 0 1-2.103 0 3.045 3.045 0 0 0-4.303 0 1.484 1.484 0 0 1-2.102 0 3.044 3.044 0 0 0-4.297 0 1.49 1.49 0 0 1-2.108 0 .774.774 0 1 0-1.094 1.094 3.036 3.036 0 0 0 4.296 0 1.486 1.486 0 0 1 2.103 0 3.046 3.046 0 0 0 4.303 0 1.484 1.484 0 0 1 2.102 0c1.319 1.32 3.388 1.055 4.34-.04a1.49 1.49 0 0 1 2.065.04 3.037 3.037 0 0 0 4.297 0 .774.774 0 0 0 0-1.094"/></svg>
